X: 7165
T: Churchill's Folly
R: jig
M: 6/8
K: Adorian
|:cBA BAG|AFD E2B|cBA BAG|ABc dBG|
cBA BAG|AFD E2F|GEF GAB|1 cAA A2B:|2 cAA A2d||
|:e2a aeB|cea aed|Bdd edd|gdd Bdd|
e2a aeB|cea aeB|cBA BAG|1 ~A3 AB/c/d:|2 ~A3 A2B||

